svg/arrow_collapse_down.svg

<svg xmlns="http://www.w3.org/2000/svg" viewBox="0 0 24 24"><path d="M19.92 12.08 12 20l-7.92-7.92 1.42-1.41 5.5 5.5V2h2v14.17l5.5-5.51zM12 20H2v2h20v-2z"/></svg>

<?xml version="1.0" encoding="UTF-8"?><!DOCTYPE svg PUBLIC "-//W3C//DTD SVG 1.1//EN" "http://www.w3.org/Graphics/SVG/1.1/DTD/svg11.dtd"><svg xmlns="http://www.w3.org/2000/svg" xmlns:xlink="http://www.w3.org/1999/xlink" version="1.1" id="mdi-arrow-collapse-down" width="24" height="24" viewBox="0 0 24 24"><path d="M19.92,12.08L12,20L4.08,12.08L5.5,10.67L11,16.17V2H13V16.17L18.5,10.66L19.92,12.08M12,20H2V22H22V20H12Z" /></svg>
